packages/assets/static/images/icons/bold/syringe--bold.svg

<svg width="24" height="24" viewBox="0 0 24 24" xmlns="http://www.w3.org/2000/svg">
<path d="M22.545 5.9541L18.045 1.4541C17.8337 1.24276 17.547 1.12402 17.2481 1.12402C16.9492 1.12402 16.6626 1.24276 16.4512 1.4541C16.2399 1.66544 16.1212 1.95209 16.1212 2.25097C16.1212 2.54986 16.2399 2.83651 16.4512 3.04785L17.9053 4.50004L15.7491 6.65629L12.795 3.7041C12.6904 3.59945 12.5661 3.51644 12.4294 3.45981C12.2927 3.40317 12.1461 3.37402 11.9981 3.37402C11.8501 3.37402 11.7036 3.40317 11.5669 3.45981C11.4301 3.51644 11.3059 3.59945 11.2012 3.7041C11.0966 3.80875 11.0136 3.93298 10.957 4.06971C10.9003 4.20644 10.8712 4.35298 10.8712 4.50097C10.8712 4.64897 10.9003 4.79551 10.957 4.93224C11.0136 5.06897 11.0966 5.1932 11.2012 5.29785L11.5303 5.62504L3.92344 13.2347C3.74873 13.4084 3.61021 13.6149 3.51591 13.8425C3.42161 14.07 3.37339 14.314 3.37406 14.5604V19.0313L1.45312 20.9541C1.24178 21.1654 1.12305 21.4521 1.12305 21.751C1.12305 22.0499 1.24178 22.3365 1.45312 22.5478C1.66447 22.7592 1.95111 22.8779 2.25 22.8779C2.54888 22.8779 2.83553 22.7592 3.04687 22.5478L4.96781 20.625H9.44156C9.68788 20.6257 9.93188 20.5775 10.1594 20.4832C10.387 20.3889 10.5936 20.2504 10.7672 20.0757L18.3741 12.4688L18.7031 12.7988C18.9145 13.0101 19.2011 13.1289 19.5 13.1289C19.7989 13.1289 20.0855 13.0101 20.2969 12.7988C20.5082 12.5874 20.627 12.3008 20.627 12.0019C20.627 11.703 20.5082 11.4164 20.2969 11.205L17.3428 8.25004L19.4991 6.09379L20.9531 7.54879C21.1645 7.76013 21.4511 7.87886 21.75 7.87886C22.0489 7.87886 22.3355 7.76013 22.5469 7.54879C22.7582 7.33744 22.877 7.0508 22.877 6.75191C22.877 6.45303 22.7582 6.16638 22.5469 5.95504L22.545 5.9541ZM9.28031 18.375H5.62406V14.7188L6.93656 13.4063L8.57812 15.0488C8.78947 15.2601 9.07611 15.3789 9.375 15.3789C9.67389 15.3789 9.96053 15.2601 10.1719 15.0488C10.3832 14.8374 10.502 14.5508 10.502 14.2519C10.502 13.953 10.3832 13.6664 10.1719 13.455L8.53031 11.8125L9.56156 10.7813L11.2031 12.4238C11.4145 12.6351 11.7011 12.7539 12 12.7539C12.2989 12.7539 12.5855 12.6351 12.7969 12.4238C13.0082 12.2124 13.127 11.9258 13.127 11.6269C13.127 11.328 13.0082 11.0414 12.7969 10.83L11.1553 9.18754L13.1241 7.21879L16.7803 10.875L9.28031 18.375Z"/>
</svg>

<svg viewBox="0 0 24 24" xmlns="http://www.w3.org/2000/svg" aria-hidden="true" fill="currentColor"><path d="m22.545 5.954-4.5-4.5a1.127 1.127 0 0 0-1.594 1.594L17.905 4.5 15.75 6.656l-2.954-2.952a1.127 1.127 0 1 0-1.594 1.594l.33.327-7.608 7.61a1.86 1.86 0 0 0-.549 1.325v4.471l-1.92 1.923a1.127 1.127 0 1 0 1.593 1.594l1.92-1.923h4.475a1.86 1.86 0 0 0 1.325-.55l7.607-7.606.33.33a1.127 1.127 0 0 0 1.593-1.594L17.343 8.25l2.156-2.156 1.454 1.455a1.127 1.127 0 0 0 1.594-1.594zM9.28 18.375H5.624v-3.656l1.313-1.313 1.641 1.643a1.127 1.127 0 0 0 1.594-1.594L8.53 11.813l1.032-1.032 1.641 1.643a1.127 1.127 0 0 0 1.594-1.594l-1.642-1.642 1.97-1.97 3.655 3.657z"/></svg>
